packages/assets/static/images/icons/images.svg

<svg width="24" height="24" viewBox="0 0 24 24" xmlns="http://www.w3.org/2000/svg">
<path d="M20.2499 3.75049H6.74994C6.35211 3.75049 5.97058 3.90852 5.68928 4.18983C5.40797 4.47113 5.24994 4.85266 5.24994 5.25049V6.75049H3.74994C3.35211 6.75049 2.97058 6.90852 2.68928 7.18983C2.40797 7.47113 2.24994 7.85266 2.24994 8.25049V18.7505C2.24994 19.1483 2.40797 19.5298 2.68928 19.8111C2.97058 20.0925 3.35211 20.2505 3.74994 20.2505H17.2499C17.6478 20.2505 18.0293 20.0925 18.3106 19.8111C18.5919 19.5298 18.7499 19.1483 18.7499 18.7505V17.2505H20.2499C20.6478 17.2505 21.0293 17.0925 21.3106 16.8111C21.5919 16.5298 21.7499 16.1483 21.7499 15.7505V5.25049C21.7499 4.85266 21.5919 4.47113 21.3106 4.18983C21.0293 3.90852 20.6478 3.75049 20.2499 3.75049ZM6.74994 5.25049H20.2499V11.1333L19.3059 10.1902C19.1666 10.0509 19.0012 9.94033 18.8192 9.86493C18.6372 9.78953 18.4421 9.75072 18.2451 9.75072C18.0481 9.75072 17.853 9.78953 17.671 9.86493C17.489 9.94033 17.3236 10.0509 17.1843 10.1902L15.3093 12.0652L11.1843 7.94018C10.903 7.65908 10.5217 7.50118 10.124 7.50118C9.72635 7.50118 9.34497 7.65908 9.06369 7.94018L6.74994 10.2539V5.25049ZM17.2499 18.7505H3.74994V8.25049H5.24994V15.7505C5.24994 16.1483 5.40797 16.5298 5.68928 16.8111C5.97058 17.0925 6.35211 17.2505 6.74994 17.2505H17.2499V18.7505ZM20.2499 15.7505H6.74994V12.3755L10.1249 9.00049L14.7806 13.6561C14.9212 13.7967 15.1119 13.8756 15.3107 13.8756C15.5095 13.8756 15.7002 13.7967 15.8409 13.6561L18.2465 11.2505L20.2499 13.2549V15.7505ZM14.9999 7.87549C14.9999 7.65298 15.0659 7.43548 15.1895 7.25047C15.3132 7.06547 15.4889 6.92127 15.6944 6.83612C15.9 6.75098 16.1262 6.7287 16.3444 6.7721C16.5626 6.81551 16.7631 6.92266 16.9204 7.07999C17.0778 7.23733 17.1849 7.43778 17.2283 7.65601C17.2717 7.87424 17.2495 8.10044 17.1643 8.30601C17.0792 8.51157 16.935 8.68728 16.75 8.81089C16.5649 8.93451 16.3474 9.00049 16.1249 9.00049C15.8266 9.00049 15.5404 8.88196 15.3294 8.67098C15.1185 8.46001 14.9999 8.17386 14.9999 7.87549Z"/>
</svg>

<svg viewBox="0 0 24 24" xmlns="http://www.w3.org/2000/svg" aria-hidden="true" fill="currentColor"><path d="M20.25 3.75H6.75a1.5 1.5 0 0 0-1.5 1.5v1.5h-1.5a1.5 1.5 0 0 0-1.5 1.5v10.5a1.5 1.5 0 0 0 1.5 1.5h13.5a1.5 1.5 0 0 0 1.5-1.5v-1.5h1.5a1.5 1.5 0 0 0 1.5-1.5V5.25a1.5 1.5 0 0 0-1.5-1.5m-13.5 1.5h13.5v5.883l-.944-.943a1.5 1.5 0 0 0-2.122 0l-1.875 1.875-4.125-4.125a1.5 1.5 0 0 0-2.12 0L6.75 10.254zm10.5 13.5H3.75V8.25h1.5v7.5a1.5 1.5 0 0 0 1.5 1.5h10.5zm3-3H6.75v-3.374L10.125 9l4.656 4.656a.75.75 0 0 0 1.06 0l2.406-2.405 2.003 2.004zM15 7.876a1.125 1.125 0 1 1 2.25 0 1.125 1.125 0 0 1-2.25 0"/></svg>
